X: 27
T: Back Shore Hornpipe
C: Drummond Cook
R: hornpipe
Z: 2008 John Chambers <jc:trillian.mit.edu>
S: Printed MS from Sylvia Miskoe
M: C|
L: 1/8
K: D
FG \
| "D"AFDF "A"A^GAB | "D"AdcB A2dc \
| "Em"Beef gf"E7"ed | "A7"c2a2 a2ag |
| "D"fagf "A"ecAc | "Bm"dfed "F#m"c2BA \
| "G"BdcB "A7"Aedc | "D"d2D2 D2 :|
|: cd \
| "A7"ecA2 Aede | "D"fdA2 Afef \
| "Em"gaba gf"E7"ed | "A7"c2a2 a2ag |
| "D"fagf "A"ecAc | "Bm"dfed "F#m"c2BA \
| "G"BdcB "A7"Aedc | "D"d2D2 D2 :|

%%sep 1 1 500

